svg/telegraf.svg

<svg width="96" height="96" viewBox="0 0 96 96" fill="none" xmlns="http://www.w3.org/2000/svg">
<path fill-rule="evenodd" clip-rule="evenodd" d="M66.0065 61.9416L83.409 57.9609C83.6643 57.8762 83.9196 57.7915 84.1749 57.6645C84.4302 57.4951 84.6004 57.2834 84.728 57.0716C84.8557 56.8175 84.9833 56.5634 84.9833 56.3094C85.0259 56.0553 84.9833 55.7588 84.8982 55.5047L77.4947 23.5744C77.3671 23.0238 77.0267 22.6004 76.5586 22.3039C76.0906 22.0498 75.5375 21.9228 74.9843 22.0498L57.5818 26.0305C57.0713 26.1576 56.6032 26.4964 56.3054 26.9622C56.0501 27.428 55.9224 27.9786 56.0501 28.5291L63.411 60.4594C63.5387 61.01 63.8791 61.4335 64.3471 61.7299C64.9428 61.984 65.4959 62.0687 66.0065 61.9416Z" fill="#020A47"/>
<path fill-rule="evenodd" clip-rule="evenodd" d="M60.0512 82.5172L81.5209 62.0772C82.3016 61.2311 82.1281 60.7413 81.0004 61.1421L66.2102 64.6155C65.603 64.7491 65.0392 65.0608 64.562 65.5062C64.1283 65.9515 63.7813 66.4859 63.5645 67.1093L59.097 81.9383C58.7934 83.0516 59.2272 83.3633 60.0512 82.5172Z" fill="#020A47"/>
<path fill-rule="evenodd" clip-rule="evenodd" d="M20.4863 76.1407L52.8449 85.9678C53.4118 86.0536 53.9788 85.9678 54.4585 85.7103C54.9382 85.4529 55.3307 84.9808 55.5051 84.4659L60.9128 67.3864C61 67.1289 61 66.8285 61 66.571C60.9564 66.3136 60.9128 66.0132 60.7383 65.7986C60.6075 65.5411 60.4331 65.3695 60.215 65.1978C59.997 65.0262 59.7353 64.8974 59.4736 64.8116L27.115 55.0703C26.5481 54.9416 25.9811 54.9845 25.4578 55.2419C24.9781 55.4994 24.5856 55.9715 24.4548 56.5293L19.0908 73.523C18.9163 74.0809 19.0035 74.6387 19.2652 75.1108C19.5269 75.6257 19.963 76.012 20.4863 76.1407Z" fill="#020A47"/>
<path fill-rule="evenodd" clip-rule="evenodd" d="M10.0865 40.9734L16.5156 69.1658C16.7285 70.2781 17.2394 70.2781 17.4949 69.1658L21.8803 54.9198C22.008 54.3209 22.0506 53.6792 21.9229 53.0803C21.7951 52.4813 21.4971 51.9252 21.1139 51.4546L11.0232 40.46C10.2994 39.6899 9.78848 39.9038 10.0865 40.9734Z" fill="#020A47"/>
<path fill-rule="evenodd" clip-rule="evenodd" d="M35.1863 10.5295L10.6533 33.7847C10.2646 34.1819 10.0486 34.7114 10.0055 35.2409C9.96226 35.8146 10.1782 36.3441 10.5669 36.7413L22.8766 50.3325C23.2654 50.7738 23.7837 50.9503 24.3452 50.9944C24.9067 51.0386 25.425 50.8179 25.8137 50.4208L50.3467 27.1656C50.7354 26.7684 50.9514 26.2389 50.9945 25.7094C51.0377 25.1357 50.8218 24.6062 50.4331 24.209L38.1666 10.6619C37.9938 10.4413 37.7346 10.3089 37.5187 10.1765C37.2595 10.0883 37.0004 10 36.7412 10C36.4821 10 36.1797 10.0441 35.9638 10.1324C35.6182 10.1765 35.4023 10.3089 35.1863 10.5295Z" fill="#020A47"/>
<path fill-rule="evenodd" clip-rule="evenodd" d="M59.4071 61.9236C60.5372 62.2226 61.2327 61.6246 60.9284 60.4713L53.7998 30.0586C53.4955 28.948 52.5827 28.649 51.7568 29.4606L28.5017 50.7324C27.6758 51.5013 27.8932 52.441 28.9799 52.6973L59.4071 61.9236Z" fill="#020A47"/>
<path fill-rule="evenodd" clip-rule="evenodd" d="M71.1853 19.2091L42.9842 10.1071C41.8544 9.78688 41.6806 10.1985 42.5496 11.159L52.848 22.8682C53.2826 23.3256 53.8474 23.6458 54.4992 23.8287C55.1076 24.0117 55.7594 24.0574 56.3677 23.9202L71.1853 20.3983C72.2716 20.0781 72.2716 19.5293 71.1853 19.2091Z" fill="#020A47"/>
</svg>

<svg xmlns="http://www.w3.org/2000/svg" width="96" height="96" fill="none"><path fill="#020A47" fill-rule="evenodd" d="m66.007 61.942 17.402-3.981c.255-.085.51-.17.766-.297a1.81 1.81 0 0 0 .553-.592c.128-.255.255-.509.255-.763.043-.254 0-.55-.085-.804l-7.403-31.93c-.128-.551-.468-.975-.936-1.271-.468-.254-1.022-.381-1.575-.254l-17.402 3.98a2.16 2.16 0 0 0-1.277.932c-.255.466-.383 1.017-.255 1.567l7.361 31.93c.128.551.468.974.936 1.27.596.255 1.149.34 1.66.213Zm-5.956 20.575 21.47-20.44c.78-.846.607-1.336-.52-.935l-14.79 3.473a3.543 3.543 0 0 0-1.649.891 4.32 4.32 0 0 0-.997 1.603l-4.468 14.83c-.304 1.113.13 1.424.954.578ZM20.486 76.14l32.359 9.828c.567.086 1.134 0 1.614-.258.48-.257.872-.73 1.046-1.244l5.408-17.08c.087-.257.087-.557.087-.815-.044-.257-.087-.558-.262-.772-.13-.258-.305-.43-.523-.601-.218-.172-.48-.3-.741-.386L27.115 55.07c-.567-.128-1.134-.086-1.657.172-.48.257-.872.73-1.003 1.287L19.09 73.523a2.003 2.003 0 0 0 .174 1.588c.262.515.698.901 1.221 1.03Zm-10.4-35.167 6.43 28.193c.213 1.112.723 1.112.979 0L21.88 54.92c.128-.6.17-1.24.043-1.84-.128-.599-.426-1.155-.81-1.625L11.024 40.46c-.724-.77-1.235-.556-.937.513Zm25.1-30.443L10.653 33.785a2.36 2.36 0 0 0-.648 1.456 1.922 1.922 0 0 0 .562 1.5l12.31 13.592c.388.44.907.617 1.468.661.562.045 1.08-.176 1.469-.573l24.533-23.255a2.36 2.36 0 0 0 .648-1.457 1.922 1.922 0 0 0-.562-1.5L38.167 10.662c-.173-.22-.432-.353-.648-.486-.26-.088-.519-.176-.778-.176s-.561.044-.777.132a1.215 1.215 0 0 0-.778.398Zm24.221 51.394c1.13.299 1.826-.3 1.521-1.453L53.8 30.06c-.304-1.111-1.217-1.41-2.043-.598l-23.255 21.27c-.826.77-.609 1.709.478 1.965l30.427 9.227ZM71.185 19.21l-28.2-9.103c-1.13-.32-1.304.091-.435 1.052l10.298 11.71c.435.457 1 .777 1.651.96.609.183 1.26.228 1.869.091l14.817-3.522c1.087-.32 1.087-.869 0-1.189Z" clip-rule="evenodd"/></svg>
